src/assets/tokens/weWBERA.svg

<svg width="40" height="40" viewBox="0 0 40 40" fill="none" xmlns="http://www.w3.org/2000/svg">
<g clip-path="url(#clip0_30362_19739)">
<g clip-path="url(#clip1_30362_19739)">
<path d="M20 40C31.0457 40 40 31.0457 40 20C40 8.9543 31.0457 0 20 0C8.9543 0 0 8.9543 0 20C0 31.0457 8.9543 40 20 40Z" fill="#F8BE40"/>
</g>
<g clip-path="url(#clip2_30362_19739)">
<path d="M36.4876 24.1127C34.217 33.2199 24.9929 38.7625 15.8847 36.4914C6.78009 34.2208 1.23756 24.9962 3.50918 15.8895C5.77868 6.78122 15.0028 1.23816 24.1084 3.50872C33.2162 5.77929 38.7582 15.005 36.4876 24.1127Z" fill="#78350F"/>
<mask id="path-6-inside-1_30362_19739" fill="white">
<path fill-rule="evenodd" clip-rule="evenodd" d="M9.04297 15.36C9.04297 16.8891 9.74667 18.2578 10.8551 19.174C10.6333 19.9623 10.515 20.7915 10.515 21.6472C10.515 26.8634 14.9117 31.0919 20.3352 31.0919C25.7588 31.0919 30.1555 26.8634 30.1555 21.6472C30.1555 20.6156 29.9835 19.6226 29.6656 18.6933C30.4775 17.8092 30.9713 16.6409 30.9713 15.36C30.9713 12.6015 28.6813 10.3652 25.8564 10.3652C24.2086 10.3652 22.7427 11.1262 21.8073 12.3079C21.3271 12.2385 20.8355 12.2025 20.3352 12.2025C19.632 12.2025 18.9461 12.2736 18.2847 12.4087C17.3539 11.1696 15.8521 10.3652 14.1578 10.3652C11.333 10.3652 9.04297 12.6015 9.04297 15.36Z"/>
</mask>
<path d="M10.8551 19.174L12.0102 19.499L12.2219 18.7469L11.6196 18.2491L10.8551 19.174ZM29.6656 18.6933L28.7818 17.8817L28.2994 18.4069L28.5302 19.0817L29.6656 18.6933ZM21.8073 12.3079L21.6356 13.4955L22.3193 13.5944L22.7481 13.0527L21.8073 12.3079ZM18.2847 12.4087L17.3253 13.1294L17.7812 13.7363L18.5249 13.5844L18.2847 12.4087ZM11.6196 18.2491C10.7706 17.5473 10.243 16.5106 10.243 15.36H7.84297C7.84297 17.2677 8.72277 18.9683 10.0906 20.0989L11.6196 18.2491ZM11.715 21.6472C11.715 20.9026 11.8179 20.1828 12.0102 19.499L9.69995 18.849C9.44876 19.7418 9.31497 20.6803 9.31497 21.6472H11.715ZM20.3352 29.8919C15.5299 29.8919 11.715 26.157 11.715 21.6472H9.31497C9.31497 27.5698 14.2934 32.2919 20.3352 32.2919V29.8919ZM28.9555 21.6472C28.9555 26.157 25.1406 29.8919 20.3352 29.8919V32.2919C26.377 32.2919 31.3555 27.5698 31.3555 21.6472H28.9555ZM28.5302 19.0817C28.806 19.888 28.9555 20.7499 28.9555 21.6472H31.3555C31.3555 20.4813 31.161 19.3572 30.801 18.3049L28.5302 19.0817ZM29.7713 15.36C29.7713 16.3253 29.4007 17.2077 28.7818 17.8817L30.5495 19.505C31.5543 18.4108 32.1713 16.9566 32.1713 15.36H29.7713ZM25.8564 11.5652C28.0456 11.5652 29.7713 13.2909 29.7713 15.36H32.1713C32.1713 11.912 29.317 9.16523 25.8564 9.16523V11.5652ZM22.7481 13.0527C23.4617 12.1512 24.5845 11.5652 25.8564 11.5652V9.16523C23.8327 9.16523 22.0237 10.1011 20.8664 11.5631L22.7481 13.0527ZM20.3352 13.4025C20.7779 13.4025 21.2121 13.4343 21.6356 13.4955L21.979 11.1202C21.4421 11.0426 20.8931 11.0025 20.3352 11.0025V13.4025ZM18.5249 13.5844C19.1076 13.4654 19.7131 13.4025 20.3352 13.4025V11.0025C19.551 11.0025 18.7846 11.0818 18.0445 11.233L18.5249 13.5844ZM14.1578 11.5652C15.4656 11.5652 16.6156 12.1847 17.3253 13.1294L19.2442 11.6879C18.0923 10.1545 16.2386 9.16523 14.1578 9.16523V11.5652ZM10.243 15.36C10.243 13.2909 11.9687 11.5652 14.1578 11.5652V9.16523C10.6973 9.16523 7.84297 11.912 7.84297 15.36H10.243Z" fill="white" mask="url(#path-6-inside-1_30362_19739)"/>
<path d="M16.6801 14.1297L12.4713 17.3454C12.1268 16.8984 11.9219 16.3382 11.9219 15.7302C11.9219 14.2677 13.1075 13.082 14.5701 13.082C15.4312 13.082 16.1964 13.4931 16.6801 14.1297Z" fill="white"/>
<path d="M23.6831 14.3133L27.8919 17.529C28.2364 17.082 28.4413 16.5219 28.4413 15.9139C28.4413 14.4513 27.2557 13.2657 25.7931 13.2657C24.932 13.2657 24.1668 13.6767 23.6831 14.3133Z" fill="white"/>
<path d="M18.2373 22.9579C18.4369 23.5085 17.855 23.915 17.2792 23.8078L15.4704 23.4712C14.8952 23.3642 14.4986 22.7765 14.8828 22.3353C14.9347 22.2757 14.9907 22.2186 15.0508 22.1643C15.8619 21.432 17.1132 21.4959 17.8455 22.307C18.0223 22.5028 18.1527 22.7243 18.2373 22.9579Z" fill="white"/>
<path d="M22.0008 22.9579C21.8013 23.5085 22.3832 23.915 22.959 23.8078L24.7677 23.4712C25.3429 23.3642 25.7396 22.7765 25.3553 22.3353C25.3035 22.2757 25.2475 22.2186 25.1874 22.1643C24.3762 21.432 23.125 21.4959 22.3927 22.307C22.2159 22.5028 22.0855 22.7243 22.0008 22.9579Z" fill="white"/>
<path d="M21.0049 23.721C21.263 23.8897 21.4682 24.128 21.5968 24.4084L20.11 25.0901L18.6471 24.3583C18.7851 24.0825 18.9983 23.8513 19.262 23.6914C19.5258 23.5315 19.8293 23.4495 20.1377 23.4547C20.4461 23.4599 20.7467 23.5522 21.0049 23.721Z" fill="white"/>
</g>
<rect x="3.25" y="3.25" width="33.5" height="33.5" rx="16.75" stroke="black" stroke-width="0.5"/>
</g>
<defs>
<clipPath id="clip0_30362_19739">
<rect width="40" height="40" rx="20" fill="white"/>
</clipPath>
<clipPath id="clip1_30362_19739">
<rect width="40" height="40" fill="white"/>
</clipPath>
<clipPath id="clip2_30362_19739">
<rect x="3" y="3" width="34" height="34" rx="17" fill="white"/>
</clipPath>
</defs>
</svg>

<svg xmlns="http://www.w3.org/2000/svg" fill="none" viewBox="0 0 40 40"><g clip-path="url(#a)"><g clip-path="url(#b)"><path fill="#F8BE40" d="M20 40c11.046 0 20-8.954 20-20S31.046 0 20 0 0 8.954 0 20s8.954 20 20 20"/></g><g clip-path="url(#c)"><path fill="#78350F" d="M36.488 24.113c-2.271 9.107-11.495 14.65-20.603 12.378C6.78 34.221 1.238 24.996 3.509 15.89 5.78 6.78 15.003 1.237 24.11 3.508s14.65 11.496 12.379 20.604"/><mask id="d" fill="#fff"><path fill-rule="evenodd" d="M9.043 15.36c0 1.53.704 2.898 1.812 3.814a9 9 0 0 0-.34 2.473c0 5.216 4.397 9.445 9.82 9.445 5.424 0 9.82-4.229 9.82-9.445a9.1 9.1 0 0 0-.49-2.954 4.9 4.9 0 0 0 1.306-3.333c0-2.758-2.29-4.995-5.115-4.995a5.15 5.15 0 0 0-4.049 1.943 10.3 10.3 0 0 0-3.522.1 5.15 5.15 0 0 0-4.127-2.043c-2.825 0-5.115 2.236-5.115 4.995" clip-rule="evenodd"/></mask><path fill="#fff" d="m10.855 19.174 1.155.325.212-.752-.602-.498zm18.81-.48-.883-.812-.483.525.231.675zm-7.858-6.386-.171 1.188.683.098.43-.541zm-3.522.1-.96.721.456.607.744-.152zM11.62 18.25a3.74 3.74 0 0 1-1.377-2.889h-2.4c0 1.908.88 3.608 2.248 4.739zm.095 3.398c0-.744.103-1.464.295-2.148l-2.31-.65a10.3 10.3 0 0 0-.385 2.798zm8.62 8.245c-4.805 0-8.62-3.735-8.62-8.245h-2.4c0 5.923 4.978 10.645 11.02 10.645zm8.62-8.245c0 4.51-3.814 8.245-8.62 8.245v2.4c6.042 0 11.02-4.722 11.02-10.645zm-.425-2.565a7.9 7.9 0 0 1 .425 2.565h2.4c0-1.166-.194-2.29-.554-3.342zm1.241-3.722c0 .965-.37 1.848-.99 2.522l1.768 1.623a6.1 6.1 0 0 0 1.622-4.145zm-3.915-3.795c2.19 0 3.915 1.726 3.915 3.795h2.4c0-3.448-2.854-6.195-6.315-6.195zm-3.108 1.488a3.95 3.95 0 0 1 3.108-1.488v-2.4a6.35 6.35 0 0 0-4.99 2.398zm-2.413.35q.665 0 1.3.092l.344-2.375a11.5 11.5 0 0 0-1.644-.117zm-1.81.181a9 9 0 0 1 1.81-.181v-2.4c-.784 0-1.55.079-2.29.23zm-4.367-2.019c1.308 0 2.458.62 3.167 1.564l1.92-1.441a6.35 6.35 0 0 0-5.087-2.523zm-3.915 3.795c0-2.07 1.726-3.795 3.915-3.795v-2.4c-3.46 0-6.315 2.747-6.315 6.195z" mask="url(#d)"/><path fill="#fff" d="m16.68 14.13-4.209 3.215a2.648 2.648 0 1 1 4.209-3.216m7.003.184 4.209 3.216a2.648 2.648 0 1 0-4.209-3.216m-5.446 8.645c.2.55-.382.957-.958.85l-1.809-.337c-.575-.107-.971-.695-.587-1.136q.078-.09.168-.17a1.98 1.98 0 0 1 3.186.793m3.763 0c-.199.55.383.957.959.85l1.809-.337c.575-.107.972-.695.587-1.136a1.98 1.98 0 0 0-3.354.623m-.996.763c.258.169.463.407.592.687l-1.487.682-1.463-.732a1.636 1.636 0 0 1 2.358-.637"/></g><rect width="33.5" height="33.5" x="3.25" y="3.25" stroke="#000" stroke-width=".5" rx="16.75"/></g><defs><clipPath id="a"><rect width="40" height="40" fill="#fff" rx="20"/></clipPath><clipPath id="b"><path fill="#fff" d="M0 0h40v40H0z"/></clipPath><clipPath id="c"><rect width="34" height="34" x="3" y="3" fill="#fff" rx="17"/></clipPath></defs></svg>
